32x32/apps/distributor-logo-aryalinux.svg

<svg xmlns="http://www.w3.org/2000/svg" width="32" height="32" version="1.1">
 <rect style="opacity:0.2" width="28" height="28" x="2" y="3" rx="1.4" ry="1.4"/>
 <rect style="fill:#4f4f4f" width="28" height="28" x="2" y="2" rx="1.4" ry="1.4"/>
 <path style="opacity:0.2" d="M 14,6 13,8.4453 V 28 H 16 V 6 Z M 17,6 V 28 H 19 L 20,25 V 6 Z M 12,10.889 5,28 H 8 L 12,19.199 Z M 21,25 20,28 H 27 V 25 Z"/>
 <path style="fill:#16ae16" d="M 14,5 13,7.4453 V 27 H 16 V 5 Z M 12,9.8887 5,27 H 8 L 12,18.199 Z"/>
 <path style="fill:#ff8416" d="M 17,5 V 27 H 19 L 20,24 V 5 Z M 21,24 20,27 H 27 V 24 Z"/>
 <path style="opacity:0.2;fill:#f4f4f7" d="M 14,5 13,7.4453 V 8.4453 L 14,6 H 16 V 5 Z M 17,5 V 6 H 20 V 5 Z M 12,9.8887 5,27 H 5.4082 L 12,10.889 Z M 21,24 20,27 H 20.334 L 21,25 H 27 V 24 Z"/>
 <path style="opacity:0.1;fill:#f4f4f7" d="M 3.4004,2 C 2.6248,2 2,2.6248 2,3.4004 V 4.4004 C 2,3.6248 2.6248,3 3.4004,3 H 28.6 C 29.375,3 30,3.6248 30,4.4004 V 3.4004 C 30,2.6248 29.375,2 28.6,2 Z"/>
</svg>

<svg xmlns="http://www.w3.org/2000/svg" width="32" height="32"><rect style="opacity:.2" width="28" height="28" x="2" y="3" rx="1.4" ry="1.4"/><rect style="fill:#4f4f4f" width="28" height="28" x="2" y="2" rx="1.4" ry="1.4"/><path style="opacity:.2" d="m14 6-1 2.445V28h3V6zm3 0v22h2l1-3V6zm-5 4.889L5 28h3l4-8.801zM21 25l-1 3h7v-3z"/><path style="fill:#16ae16" d="m14 5-1 2.445V27h3V5zm-2 4.889L5 27h3l4-8.801z"/><path style="fill:#ff8416" d="M17 5v22h2l1-3V5zm4 19-1 3h7v-3z"/><path style="opacity:.2;fill:#f4f4f7" d="m14 5-1 2.445v1L14 6h2V5zm3 0v1h3V5zm-5 4.889L5 27h.408L12 10.889zM21 24l-1 3h.334L21 25h6v-1z"/><path style="opacity:.1;fill:#f4f4f7" d="M3.4 2C2.625 2 2 2.625 2 3.4v1C2 3.625 2.625 3 3.4 3h25.2c.775 0 1.4.625 1.4 1.4v-1c0-.775-.625-1.4-1.4-1.4z"/></svg>
